assets/img/braze_icons/phone-call-01.svg

<svg fill="none" height="24" viewBox="0 0 24 24" width="24" xmlns="http://www.w3.org/2000/svg"><g clip-rule="evenodd" fill="#801ed7" fill-rule="evenodd"><path d="m13.0687 5.80847c.1057-.54206.6309-.89576 1.1729-.79 1.1721.22868 2.2493.80191 3.0937 1.64632.8444.84442 1.4177 1.9216 1.6463 3.09368.1058.54203-.2479 1.06723-.79 1.17303-.542.1057-1.0672-.248-1.1729-.79-.1525-.78143-.5347-1.49955-1.0976-2.06249s-1.2811-.9451-2.0624-1.09755c-.5421-.10576-.8958-.63092-.79-1.17299z"/><path d="m13.0563 1.88955c.0609-.5489.5554-.944449 1.1043-.88347 2.2547.25048 4.3573 1.26019 5.9625 2.86334 1.6051 1.60315 2.6175 3.70445 2.8708 5.95888.0617.5488-.3333 1.0437-.8821 1.1054s-1.0437-.3332-1.1054-.8821c-.2027-1.80352-1.0125-3.48456-2.2967-4.76707-1.2841-1.28252-2.9662-2.09029-4.77-2.29068-.5489-.06098-.9444-.55539-.8834-1.1043z"/><path d="m6.33804 17.7521c-2.43391-2.4339-4.20373-5.4649-5.14431-8.77409-.14751-.51901-.261898-.92148-.263541-1.47337-.001878-.63078.203631-1.42101.512561-1.97096.53128-.94577 1.67204-2.15782 2.65737-2.6562.85134-.4306 1.85674-.4306 2.70808 0 .83566.42267 1.79422 1.40108 2.30314 2.18383.64649.99433.64649 2.2762 0 3.27054-.17324.26645-.42017.51296-.70683.79914-.08926.08911-.18751.15349-.12226.28938.64782 1.34933 1.53131 2.61483 2.65195 3.73553 1.1207 1.1207 2.3863 2.0042 3.7356 2.652.1397.0671.1969-.0296.2894-.1223.2862-.2866.5327-.5335.7991-.7068.9944-.6465 2.2762-.6465 3.2706 0 .7827.5089 1.7611 1.4675 2.1838 2.3032.4306.8513.4306 1.8567 0 2.708-.4947.978-1.6968 2.1185-2.6562 2.6574-.55.3089-1.3402.5145-1.971.5126-.5519-.0017-.9543-.1161-1.4733-.2636-3.3093-.9405-6.34028-2.7104-8.77416-5.1443z"/></g></svg>

<svg width="24" height="24" viewBox="0 0 24 24" fill="none" xmlns="http://www.w3.org/2000/svg">
<path fill-rule="evenodd" clip-rule="evenodd" d="M13.0687 5.80847C13.1744 5.26641 13.6996 4.91271 14.2416 5.01847C15.4137 5.24715 16.4909 5.82038 17.3353 6.66479C18.1797 7.50921 18.753 8.58639 18.9816 9.75847C19.0874 10.3005 18.7337 10.8257 18.1916 10.9315C17.6496 11.0372 17.1244 10.6835 17.0187 10.1415C16.8662 9.36007 16.484 8.64195 15.9211 8.07901C15.3582 7.51607 14.64 7.13391 13.8587 6.98146C13.3166 6.8757 12.9629 6.35054 13.0687 5.80847Z" fill="#801ED7"/>
<path fill-rule="evenodd" clip-rule="evenodd" d="M13.0563 1.88955C13.1172 1.34065 13.6117 0.945101 14.1606 1.00608C16.4153 1.25656 18.5179 2.26627 20.1231 3.86942C21.7282 5.47257 22.7406 7.57387 22.9939 9.8283C23.0556 10.3771 22.6606 10.872 22.1118 10.9337C21.563 10.9954 21.0681 10.6005 21.0064 10.0516C20.8037 8.24808 19.9939 6.56704 18.7097 5.28453C17.4256 4.00201 15.7435 3.19424 13.9397 2.99385C13.3908 2.93287 12.9953 2.43846 13.0563 1.88955Z" fill="#801ED7"/>
<path fill-rule="evenodd" clip-rule="evenodd" d="M6.33804 17.7521C3.90413 15.3182 2.13431 12.2872 1.19373 8.97801C1.04622 8.459 0.931832 8.05653 0.930189 7.50464C0.928311 6.87386 1.13382 6.08363 1.44275 5.53368C1.97403 4.58791 3.11479 3.37586 4.10012 2.87748C4.95146 2.44688 5.95686 2.44688 6.8082 2.87748C7.64386 3.30015 8.60242 4.27856 9.11134 5.06131C9.75783 6.05564 9.75783 7.33751 9.11134 8.33185C8.9381 8.5983 8.69117 8.84481 8.40451 9.13099C8.31525 9.2201 8.217 9.28448 8.28225 9.42037C8.93007 10.7697 9.81356 12.0352 10.9342 13.1559C12.0549 14.2766 13.3205 15.1601 14.6698 15.8079C14.8095 15.875 14.8667 15.7783 14.9592 15.6856C15.2454 15.399 15.4919 15.1521 15.7583 14.9788C16.7527 14.3323 18.0345 14.3323 19.0289 14.9788C19.8116 15.4877 20.79 16.4463 21.2127 17.282C21.6433 18.1333 21.6433 19.1387 21.2127 19.99C20.718 20.968 19.5159 22.1085 18.5565 22.6474C18.0065 22.9563 17.2163 23.1619 16.5855 23.16C16.0336 23.1583 15.6312 23.0439 15.1122 22.8964C11.8029 21.9559 8.77192 20.186 6.33804 17.7521Z" fill="#801ED7"/>
</svg>
